img/wm-icon.svg

<svg width="26" height="34" viewBox="0 0 26 34" fill="none" xmlns="http://www.w3.org/2000/svg">
<path d="M8.83946 21.6572C8.83946 20.9372 8.61816 20.3443 8.17558 19.8784C7.73299 19.4041 6.99534 18.9805 5.96264 18.6078C4.92993 18.2267 4.12672 17.8751 3.55299 17.5533C1.64331 16.4945 0.68847 14.9274 0.68847 12.8521C0.68847 11.446 1.10237 10.2898 1.93017 9.38348C2.75798 8.47714 3.63496 7.96467 5.05287 7.79526V5H7.26581V7.79526C8.69193 8.00702 9.7943 8.63384 10.5729 9.67571C11.3516 10.7091 11.7409 12.0559 11.7409 13.7161H8.76569C8.76569 12.6489 8.5321 11.8103 8.06493 11.2004C7.60595 10.5821 6.97895 10.2729 6.18393 10.2729C5.39711 10.2729 4.7824 10.4931 4.33982 10.9336C3.89723 11.374 3.67594 12.0051 3.67594 12.8267C3.67594 13.5637 3.89313 14.1566 4.32752 14.6055C4.77011 15.046 5.51595 15.4653 6.56505 15.8634C7.61415 16.2615 8.43785 16.63 9.03616 16.9688C9.63448 17.3076 10.1385 17.6973 10.5483 18.1377C10.9581 18.5697 11.2737 19.0695 11.495 19.637C11.7163 20.2045 11.8269 20.8695 11.8269 21.6318C11.8269 23.0633 11.4007 24.2238 10.5483 25.1132C9.70414 26.0026 8.67963 26.5405 7.16336 26.7014V28.6538H5.05287V26.7014C3.43005 26.515 2.18015 25.9136 1.30317 24.8972C0.434391 23.8807 0 22.5339 0 20.8568H2.98747C2.98747 21.924 3.24564 22.7499 3.76199 23.3344C4.28654 23.9188 5.02419 24.2111 5.97493 24.2111C6.90928 24.2111 7.61824 23.9781 8.10181 23.5123C8.59358 23.0464 8.83946 22.428 8.83946 21.6572Z" fill="#6ADAAB"/>
<rect x="15.7693" y="14.8558" width="1.97115" height="5.91346" fill="#6ADAAB"/>
<rect x="19.7114" y="12.8846" width="1.97115" height="9.85577" fill="#6ADAAB"/>
<rect x="23.6538" y="10.9135" width="1.97115" height="13.7981" fill="#6ADAAB"/>
</svg>

<svg width="26" height="34" viewBox="0 0 26 34" fill="none" xmlns="http://www.w3.org/2000/svg"><path d="M8.84 21.657c0-.72-.222-1.313-.664-1.779-.443-.474-1.18-.898-2.213-1.27-1.033-.381-1.836-.733-2.41-1.055-1.91-1.059-2.865-2.626-2.865-4.7 0-1.407.414-2.563 1.242-3.47.828-.906 1.705-1.418 3.123-1.588V5h2.213v2.795c1.426.212 2.528.839 3.307 1.88.779 1.034 1.168 2.38 1.168 4.041H8.766c0-1.067-.234-1.906-.701-2.516-.459-.618-1.086-.927-1.881-.927-.787 0-1.402.22-1.844.66-.443.441-.664 1.072-.664 1.894 0 .737.217 1.33.652 1.778.442.441 1.188.86 2.237 1.258 1.05.399 1.873.767 2.471 1.106a6.252 6.252 0 011.512 1.169c.41.432.726.931.947 1.499.221.567.332 1.232.332 1.995 0 1.431-.426 2.592-1.279 3.481-.844.89-1.868 1.428-3.385 1.588v1.953h-2.11V26.7c-1.623-.186-2.873-.787-3.75-1.804C.434 23.881 0 22.534 0 20.857h2.987c0 1.067.259 1.893.775 2.477.525.585 1.262.877 2.213.877.934 0 1.643-.233 2.127-.699.492-.466.737-1.084.737-1.855zm6.929-6.801h1.971v5.913h-1.971zm3.942-1.971h1.971v9.856h-1.971zm3.943-1.971h1.971v13.798h-1.971z" fill="#6ADAAB"/></svg>
